!!!COM: Fux, Johann Joseph
!!!OMD: Gradus ad Parnassum Exercise
!!!YEC: CC0 1.0 Universal (Public Domain). Mark Gotham and FourScoreAndMore.org waive all rights to this document.
**kern	**kern	**kern
*part3	*part2	*part1
*staff3	*staff2	*staff1
*I"3	*I"2	*I"1
*I'Pno	*I'Pno	*I'Pno
*clefF4	*clefG2	*clefG2
*k[]	*k[]	*k[]
!!LO:TX:omd:t=
*M4/4	*M4/4	*M4/4
=1	=1	=1
!	!	!LO:TX:a:t=Fig. 101; Species&colon; 1; Modal final&colon; d; Cantus firmus&colon; 1
1D	1F	1d
=2	=2	=2
1D	1A	1f
=3	=3	=3
1A	1c	1e
=4	=4	=4
1F	1A	1d
=5	=5	=5
1E	1B	1g
=6	=6	=6
1D	1d	1f
=7	=7	=7
1F	1c	1a
=8	=8	=8
1C	1e	1g
=9	=9	=9
1D	1d	1f
=10	=10	=10
1A	1c#X	1e
=11	=11	=11
1D	1d	1d
==	==	==
*-	*-	*-
!!!software: music21 v.9.7.1
!!!software: music21 v.9.7.1
!!!software: MuseScore 3.4.2
!!!RDF**kern: > = above
!!!RDF**kern: < = below
